X: 72
T: 68. DANCE TUNE
B: Sam Bayard, "Hill Country Tunes" 1944 #68
N: Copied from manuscript of Denune Provance, Peachen, PA, Sept 21, 1943.
S: Learned from traditional players about Dunbar.
R: polka, reel
M: 2/4
L: 1/16
Z: 2010 John Chambers <jc:trillian.mit.edu>
K: F
|: f3e f2a2 | gfeg fcAc | f3e "a."f2a2 | gfeg f4 :|
|: a6 a2 | c'6 a2 | g6 g2 | d8 | e6 f2 | a2g2 e2c2 |
[1 d2c2 c2B2 | A8 :|[2 f3e fefg | f4 "Da Capo"c4 |] "Final measure at end."y16 | f8 |]
P: Var:
"a."f3a |]

%%sep 2 1 500
%%sep 1 1 500

